X: 1474
T: Neş`eyab Ol
C: Ahmet Mükerrem Akıncı
O: Turkey
F: http://compmusic.upf.edu/node/140
N: acemasiran--sarki--devrihindi--neseyab_ol--ahmet_mukerrem_akinci
N: makam= acemasiran
N: form= sarki
N: usul= devrihindi = 7/4
M: 7/4
L: 1/16
K: C _B   
Q: 1/4=78
%%MIDI tuningsystem comma53
f4 f4 f4 f2e2 e2d2 d2ef edc2  | c2f2 e2a2 g2b2 a2g2 f2e2 f6z2  | 
w:   |   | 
a4 a4 g2f2 (3b2a2g2 c'2a2 (3f2e2d2 c4  | \
w:   | 
e2f2 e2f2 gaga f8 f6z2  | 
w:   | 
f4 f4 f4 f2e2 e2d2 d2ef edc2  | c2f2 e2a2 g2b2 a2g2 f2e2 f6z2  | 
w:   |   | 
a4 a4 g2f2 (3b2a2g2 c'2a2 (3f2e2d2 c4  | \
w:   | 
e2f2 e2f2 gaga f8 f6z2  | 
w:   | 
b4 b4 g4 c'ba2 agf2 (3f2e2d2 c4  | \
w:   | 
c2f2 e2g2 f2_7/8a2 g2f2 _e2d2 cdcB A^GA2  | 
w:   | 
A2c2 _1/4B4 c4 d3_e d2c2 _B3A G4  | \
w:   | 
c2B2 A2G2 F2E2 F8 F6z2  | b4 b4 g4 c'ba2 agf2 (3f2e2d2 c4  | 
w:   |   | 
c2f2 e2g2 f2_7/8a2 g2f2 _e2d2 cdcB A^GA2  | \
w:   | 
A2c2 _1/4B4 c4 d3_e d2c2 _B3A G4  | 
w:   | 
c2B2 A2G2 F2E2 F8 F6z2  | c4 c4 c4 (3_7/8d2c2B2 A2B2 c4 d2B2  | \
w:   |   | 
A4 A4 _7/8G2A2 B3A B2G2 F6z2  | 
w:   | 
F2B2 A4 B4 c3B A2B2 _7/8d3c B2c2  | \
w:   | 
_7/8d2e2 d2c2 Bedc c8 c6z2  | 
w:   | 
f4 f4 f4 f2e2 f2g2 a4 g2f2  | e2g2 f2e2 d4 ^c2d2 (3e2e2d2 d6z2  | 
w:   |   | 
a4 a4 g2f2 (3b2a2g2 c'2a2 (3f2e2d2 c4  | \
w:   | 
e2f2 e2f2 gaga f8 f6z2  | 
w:   | 
b4 b4 g4 c'ba2 agf2 (3f2e2d2 c4  | \
w:   | 
c2f2 e2g2 f2_7/8a2 g2f2 _e2d2 cdcB A^GA2  | 
w:   | 
A2c2 _1/4B4 c4 d3_e d2c2 _B3A G4  | \
w:   | 
c2B2 A2G2 F2E2 F8 F6z2  | b4 b4 g4 c'ba2 agf2 (3f2e2d2 c4  | 
w:   |   | 
c2f2 e2g2 f2_7/8a2 g2f2 _e2d2 cdcB A^GA2  | \
w:   | 
A2c2 _1/4B4 c4 d3_e d2c2 _B3A G4  | 
w:   | 
c2B2 A2G2 F2E2 F8 F6z2  | c4 c4 c4 (3_7/8d2c2B2 A2B2 c4 d2B2  | \
w:   |   | 
A4 A4 _7/8G2A2 B3A B2G2 F6z2  | 
w:   | 
F2B2 A4 B4 c3B A2B2 _7/8d3c B2c2  | \
w:   | 
_7/8d2e2 d2c2 Bedc c8 c6z2  | 
w:   | 
f4 f4 f4 f2e2 f2g2 a4 g2f2  | e2g2 f2e2 d4 ^c2d2 (3e2e2d2 d6z2  | 
w:   |   | 
a4 a4 g2f2 (3b2a2g2 c'2a2 (3f2e2d2 c4  | \
w:   | 
e2f2 e2f2 gaga f8 f6z2  | 
w:   | 
|


